src/gui/emoticons/clown.svg

<svg xmlns="http://www.w3.org/2000/svg" xmlns:xlink="http://www.w3.org/1999/xlink" width="16pt" height="16pt" version="1.1" viewBox="0 0 16 16"><defs><linearGradient id="linear0" x1="63.989" x2="63.989" y1="19.871" y2="107.6" gradientTransform="matrix(0.125,0,0,0.125,0,0)" gradientUnits="userSpaceOnUse"><stop offset=".5" style="stop-color:#fff;stop-opacity:1"/><stop offset=".613" style="stop-color:#fcfcfc;stop-opacity:1"/><stop offset=".709" style="stop-color:#f1f1f1;stop-opacity:1"/><stop offset=".8" style="stop-color:#dfdfdf;stop-opacity:1"/><stop offset=".886" style="stop-color:#c7c7c7;stop-opacity:1"/><stop offset=".9" style="stop-color:#c2c2c2;stop-opacity:1"/></linearGradient><radialGradient id="radial0" cx="39.417" cy="67.104" r="21.667" fx="39.417" fy="67.104" gradientTransform="matrix(0.125,0,0,0.0913375,0,2.474375)" gradientUnits="userSpaceOnUse"><stop offset="0" style="stop-color:#ed7770;stop-opacity:1"/><stop offset=".9" style="stop-color:#ed7770;stop-opacity:0"/></radialGradient><radialGradient id="radial1" cx="87.583" cy="67.104" r="21.667" fx="87.583" fy="67.104" gradientTransform="matrix(0.125,0,0,0.0913375,0,2.474375)" gradientUnits="userSpaceOnUse"><stop offset="0" style="stop-color:#ed7770;stop-opacity:1"/><stop offset=".9" style="stop-color:#ed7770;stop-opacity:0"/></radialGradient><radialGradient id="radial2" cx="66" cy="60" r="20.67" fx="66" fy="60" gradientUnits="userSpaceOnUse"><stop offset="0" style="stop-color:#ff4900;stop-opacity:1"/><stop offset="1" style="stop-color:#e30c00;stop-opacity:1"/></radialGradient><linearGradient id="linear1" x1="23.808" x2="23.808" y1="5.811" y2="43.454" gradientTransform="matrix(0.125,0,0,0.125,0,0)" gradientUnits="userSpaceOnUse"><stop offset="0" style="stop-color:#ff4900;stop-opacity:1"/><stop offset="1" style="stop-color:#e30c00;stop-opacity:1"/></linearGradient><linearGradient id="linear2" x1="104.63" x2="104.63" y1="5.811" y2="43.454" gradientTransform="matrix(0.125,0,0,0.125,0,0)" gradientUnits="userSpaceOnUse"><stop offset="0" style="stop-color:#ff4900;stop-opacity:1"/><stop offset="1" style="stop-color:#e30c00;stop-opacity:1"/></linearGradient></defs><g id="surface1"><path style="stroke:none;fill-rule:nonzero;fill:url(#linear0)" d="M 8 14.96875 C 4.515625 14.96875 0.769531 12.789062 0.769531 8.003906 C 0.769531 3.21875 4.515625 1.039062 8 1.039062 C 9.929688 1.039062 11.714844 1.675781 13.027344 2.835938 C 14.46875 4.105469 15.226562 5.890625 15.226562 8.003906 C 15.226562 10.105469 14.46875 11.890625 13.027344 13.164062 C 11.710938 14.328125 9.925781 14.96875 8 14.96875 Z M 8 14.96875"/><path style="stroke:none;fill-rule:nonzero;fill:#b0aba3;fill-opacity:1" d="M 8 1.285156 C 9.867188 1.285156 11.59375 1.902344 12.863281 3.023438 C 14.246094 4.242188 14.976562 5.964844 14.976562 8.003906 C 14.976562 10.03125 14.246094 11.75 12.863281 12.972656 C 11.589844 14.097656 9.863281 14.71875 8 14.71875 C 6.125 14.71875 4.394531 14.109375 3.132812 12.996094 C 1.75 11.78125 1.019531 10.054688 1.019531 8.003906 C 1.019531 5.941406 1.75 4.210938 3.132812 3 C 4.390625 1.894531 6.121094 1.285156 8 1.285156 M 8 0.785156 C 4.117188 0.785156 0.519531 3.28125 0.519531 8.003906 C 0.519531 12.699219 4.117188 15.21875 8 15.21875 C 11.882812 15.21875 15.476562 12.636719 15.476562 8.003906 C 15.476562 3.34375 11.882812 0.785156 8 0.785156 Z M 8 0.785156"/><path style="stroke:none;fill-rule:nonzero;fill:url(#radial0)" d="M 7.417969 8.605469 C 7.417969 7.550781 6.300781 6.695312 4.925781 6.695312 C 3.550781 6.695312 2.4375 7.550781 2.4375 8.605469 C 2.4375 9.65625 3.550781 10.511719 4.925781 10.511719 C 6.300781 10.511719 7.417969 9.65625 7.417969 8.605469 Z M 7.417969 8.605469"/><path style="stroke:none;fill-rule:nonzero;fill:url(#radial1)" d="M 13.4375 8.605469 C 13.4375 7.550781 12.324219 6.695312 10.949219 6.695312 C 9.574219 6.695312 8.457031 7.550781 8.457031 8.605469 C 8.457031 9.65625 9.574219 10.511719 10.949219 10.511719 C 12.324219 10.511719 13.4375 9.65625 13.4375 8.605469 Z M 13.4375 8.605469"/><path style="stroke:none;fill-rule:nonzero;fill:#242424;fill-opacity:1" d="M 11.410156 6.25 L 9.625 6.25 C 9.359375 6.25 9.144531 6.03125 9.144531 5.765625 C 9.144531 5.503906 9.359375 5.285156 9.625 5.285156 L 11.410156 5.285156 C 11.675781 5.285156 11.894531 5.503906 11.894531 5.765625 C 11.867188 6.035156 11.652344 6.25 11.410156 6.25 Z M 11.410156 6.25"/><path style="stroke:none;fill-rule:nonzero;fill:#242424;fill-opacity:1" d="M 10.492188 7.144531 C 10.230469 7.144531 10.011719 6.925781 10.011719 6.660156 L 10.011719 4.875 C 10.011719 4.609375 10.230469 4.390625 10.492188 4.390625 C 10.757812 4.390625 10.976562 4.609375 10.976562 4.875 L 10.976562 6.660156 C 10.976562 6.925781 10.761719 7.144531 10.492188 7.144531 Z M 10.492188 7.144531"/><path style="fill-rule:nonzero;fill:url(#radial2);stroke-width:5;stroke-linecap:butt;stroke-linejoin:miter;stroke:#b32e2e;stroke-opacity:1;stroke-miterlimit:10" d="M 79.09375 66 C 79.09375 74.34375 72.34375 81.125 64 81.125 C 55.65625 81.125 48.875 74.34375 48.875 66 C 48.875 57.65625 55.65625 50.875 64 50.875 C 72.34375 50.875 79.09375 57.65625 79.09375 66 Z M 79.09375 66" transform="matrix(0.125,0,0,0.125,0,0)"/><path style="stroke:none;fill-rule:nonzero;fill:#242424;fill-opacity:1" d="M 8 12.9375 C 6.199219 12.9375 4.507812 12.171875 3.359375 10.828125 C 3.238281 10.6875 3.210938 10.496094 3.289062 10.332031 C 3.367188 10.164062 3.535156 10.050781 3.71875 10.050781 C 3.800781 10.050781 3.882812 10.074219 3.957031 10.117188 C 5.132812 10.800781 6.53125 11.160156 8 11.160156 C 9.46875 11.160156 10.863281 10.800781 12.042969 10.117188 C 12.113281 10.074219 12.199219 10.050781 12.28125 10.050781 C 12.460938 10.050781 12.628906 10.160156 12.707031 10.332031 C 12.785156 10.496094 12.757812 10.6875 12.636719 10.828125 C 11.488281 12.171875 9.796875 12.9375 8 12.9375 Z M 8 12.9375"/><path style="stroke:none;fill-rule:nonzero;fill:#ed0009;fill-opacity:1" d="M 12.28125 10.300781 C 12.449219 10.300781 12.578125 10.511719 12.445312 10.667969 C 11.390625 11.902344 9.789062 12.6875 8 12.6875 C 6.207031 12.6875 4.609375 11.898438 3.550781 10.667969 C 3.417969 10.511719 3.546875 10.300781 3.71875 10.300781 C 3.753906 10.300781 3.792969 10.3125 3.828125 10.332031 C 4.996094 11.011719 6.4375 11.414062 8 11.414062 C 9.558594 11.414062 11 11.011719 12.167969 10.332031 C 12.203125 10.3125 12.242188 10.300781 12.28125 10.300781 M 12.28125 9.800781 C 12.152344 9.800781 12.027344 9.835938 11.917969 9.902344 C 10.777344 10.5625 9.421875 10.914062 8 10.914062 C 6.574219 10.914062 5.21875 10.5625 4.082031 9.902344 C 3.96875 9.835938 3.84375 9.804688 3.71875 9.804688 C 3.4375 9.804688 3.179688 9.96875 3.0625 10.226562 C 2.945312 10.484375 2.984375 10.777344 3.171875 10.992188 C 4.363281 12.386719 6.125 13.1875 8 13.1875 C 9.871094 13.1875 11.632812 12.386719 12.828125 10.992188 C 13.011719 10.777344 13.050781 10.484375 12.933594 10.226562 C 12.816406 9.96875 12.558594 9.800781 12.28125 9.800781 Z M 12.28125 9.800781"/><path style="stroke:none;fill-rule:nonzero;fill:url(#linear1)" d="M 1.453125 5.859375 C 0.878906 5.859375 0.410156 5.390625 0.410156 4.816406 C 0.410156 4.425781 0.625 4.070312 0.976562 3.890625 C 1.089844 3.828125 1.140625 3.691406 1.089844 3.570312 C 1.003906 3.367188 0.960938 3.152344 0.960938 2.933594 C 0.960938 2.042969 1.6875 1.316406 2.578125 1.316406 C 2.925781 1.316406 3.261719 1.425781 3.542969 1.636719 C 3.585938 1.671875 3.636719 1.6875 3.691406 1.6875 C 3.71875 1.6875 3.746094 1.683594 3.769531 1.671875 C 3.847656 1.648438 3.910156 1.582031 3.929688 1.503906 C 4.03125 1.152344 4.355469 0.90625 4.722656 0.90625 C 5.175781 0.90625 5.542969 1.273438 5.542969 1.726562 C 5.542969 2.179688 5.171875 2.546875 4.722656 2.546875 C 4.648438 2.546875 4.578125 2.539062 4.503906 2.515625 C 4.480469 2.511719 4.457031 2.507812 4.4375 2.507812 C 4.378906 2.507812 4.320312 2.527344 4.277344 2.566406 C 4.214844 2.621094 4.179688 2.699219 4.1875 2.78125 C 4.191406 2.832031 4.195312 2.882812 4.195312 2.933594 C 4.195312 3.777344 3.5625 4.46875 2.722656 4.542969 C 2.589844 4.554688 2.492188 4.664062 2.496094 4.796875 C 2.496094 4.800781 2.496094 4.816406 2.496094 4.820312 C 2.496094 5.390625 2.027344 5.859375 1.453125 5.859375 Z M 1.453125 5.859375"/><path style="stroke:none;fill-rule:nonzero;fill:#b32e2e;fill-opacity:1" d="M 4.722656 1.15625 C 5.035156 1.15625 5.292969 1.410156 5.292969 1.726562 C 5.292969 2.042969 5.035156 2.296875 4.722656 2.296875 C 4.671875 2.296875 4.621094 2.289062 4.570312 2.277344 C 4.523438 2.265625 4.480469 2.257812 4.433594 2.257812 C 4.320312 2.257812 4.203125 2.296875 4.113281 2.375 C 3.988281 2.480469 3.921875 2.640625 3.9375 2.804688 C 3.941406 2.855469 3.941406 2.894531 3.941406 2.933594 C 3.941406 3.644531 3.40625 4.230469 2.699219 4.292969 C 2.4375 4.316406 2.238281 4.539062 2.242188 4.800781 C 2.242188 4.808594 2.242188 4.820312 2.242188 4.828125 C 2.234375 5.261719 1.882812 5.609375 1.449219 5.609375 C 1.011719 5.609375 0.65625 5.253906 0.65625 4.816406 C 0.65625 4.519531 0.824219 4.25 1.085938 4.113281 C 1.320312 3.992188 1.421875 3.710938 1.316406 3.472656 C 1.246094 3.300781 1.207031 3.121094 1.207031 2.933594 C 1.207031 2.179688 1.820312 1.566406 2.574219 1.566406 C 2.871094 1.566406 3.152344 1.660156 3.390625 1.835938 C 3.476562 1.902344 3.582031 1.9375 3.6875 1.9375 C 3.742188 1.9375 3.796875 1.925781 3.851562 1.910156 C 4.007812 1.859375 4.125 1.730469 4.171875 1.574219 C 4.242188 1.328125 4.464844 1.15625 4.722656 1.15625 M 4.722656 0.65625 C 4.230469 0.65625 3.816406 0.984375 3.691406 1.4375 C 3.378906 1.203125 2.992188 1.066406 2.578125 1.066406 C 1.546875 1.066406 0.707031 1.902344 0.707031 2.933594 C 0.707031 3.195312 0.761719 3.441406 0.859375 3.667969 C 0.441406 3.882812 0.160156 4.316406 0.160156 4.816406 C 0.160156 5.53125 0.738281 6.109375 1.453125 6.109375 C 2.164062 6.109375 2.742188 5.53125 2.742188 4.816406 C 2.742188 4.808594 2.742188 4.800781 2.742188 4.792969 C 3.695312 4.707031 4.441406 3.910156 4.441406 2.933594 C 4.441406 2.875 4.4375 2.816406 4.433594 2.761719 C 4.523438 2.785156 4.621094 2.800781 4.71875 2.800781 C 5.3125 2.800781 5.792969 2.320312 5.792969 1.730469 C 5.792969 1.136719 5.3125 0.65625 4.722656 0.65625 Z M 4.722656 0.65625"/><path style="stroke:none;fill-rule:nonzero;fill:url(#linear2)" d="M 14.601562 5.859375 C 14.027344 5.859375 13.558594 5.390625 13.558594 4.816406 C 13.558594 4.8125 13.5625 4.800781 13.5625 4.796875 C 13.5625 4.664062 13.464844 4.554688 13.332031 4.542969 C 12.496094 4.46875 11.859375 3.777344 11.859375 2.933594 C 11.859375 2.882812 11.863281 2.832031 11.867188 2.78125 C 11.875 2.703125 11.84375 2.621094 11.78125 2.566406 C 11.734375 2.53125 11.675781 2.507812 11.621094 2.507812 C 11.597656 2.507812 11.574219 2.511719 11.554688 2.515625 C 11.480469 2.539062 11.40625 2.546875 11.335938 2.546875 C 10.882812 2.546875 10.515625 2.179688 10.515625 1.726562 C 10.515625 1.273438 10.882812 0.90625 11.335938 0.90625 C 11.703125 0.90625 12.027344 1.152344 12.125 1.503906 C 12.148438 1.582031 12.207031 1.648438 12.285156 1.671875 C 12.3125 1.683594 12.339844 1.6875 12.363281 1.6875 C 12.417969 1.6875 12.46875 1.671875 12.515625 1.636719 C 12.796875 1.425781 13.128906 1.316406 13.480469 1.316406 C 14.371094 1.316406 15.097656 2.042969 15.097656 2.933594 C 15.097656 3.152344 15.050781 3.367188 14.964844 3.570312 C 14.914062 3.691406 14.964844 3.828125 15.082031 3.890625 C 15.429688 4.070312 15.644531 4.425781 15.644531 4.816406 C 15.644531 5.390625 15.175781 5.859375 14.601562 5.859375 Z M 14.601562 5.859375"/><path style="stroke:none;fill-rule:nonzero;fill:#b32e2e;fill-opacity:1" d="M 11.332031 1.15625 C 11.589844 1.15625 11.8125 1.328125 11.882812 1.570312 C 11.929688 1.730469 12.046875 1.855469 12.203125 1.910156 C 12.257812 1.925781 12.3125 1.933594 12.363281 1.933594 C 12.472656 1.933594 12.578125 1.902344 12.664062 1.835938 C 12.902344 1.660156 13.183594 1.566406 13.480469 1.566406 C 14.234375 1.566406 14.847656 2.179688 14.847656 2.933594 C 14.847656 3.117188 14.808594 3.300781 14.734375 3.46875 C 14.632812 3.710938 14.734375 3.992188 14.964844 4.109375 C 15.230469 4.25 15.394531 4.519531 15.394531 4.816406 C 15.394531 5.253906 15.039062 5.609375 14.605469 5.609375 C 14.171875 5.609375 13.816406 5.257812 13.8125 4.828125 C 13.8125 4.816406 13.8125 4.808594 13.8125 4.800781 C 13.816406 4.539062 13.617188 4.316406 13.355469 4.292969 C 12.644531 4.230469 12.109375 3.644531 12.109375 2.929688 C 12.109375 2.894531 12.113281 2.851562 12.117188 2.804688 C 12.132812 2.640625 12.066406 2.480469 11.941406 2.375 C 11.847656 2.296875 11.734375 2.257812 11.617188 2.257812 C 11.574219 2.257812 11.53125 2.265625 11.484375 2.273438 C 11.433594 2.289062 11.382812 2.296875 11.332031 2.296875 C 11.015625 2.296875 10.761719 2.039062 10.761719 1.726562 C 10.761719 1.414062 11.019531 1.15625 11.332031 1.15625 M 11.332031 0.65625 C 10.742188 0.65625 10.261719 1.136719 10.261719 1.726562 C 10.261719 2.320312 10.742188 2.796875 11.332031 2.796875 C 11.433594 2.796875 11.527344 2.78125 11.621094 2.757812 C 11.613281 2.816406 11.609375 2.871094 11.609375 2.929688 C 11.609375 3.90625 12.359375 4.703125 13.3125 4.789062 C 13.3125 4.796875 13.308594 4.804688 13.308594 4.8125 C 13.308594 5.527344 13.890625 6.105469 14.601562 6.105469 C 15.316406 6.105469 15.894531 5.527344 15.894531 4.8125 C 15.894531 4.3125 15.609375 3.878906 15.195312 3.664062 C 15.292969 3.441406 15.34375 3.191406 15.34375 2.929688 C 15.34375 1.898438 14.507812 1.0625 13.476562 1.0625 C 13.058594 1.0625 12.675781 1.203125 12.363281 1.433594 C 12.238281 0.984375 11.824219 0.65625 11.332031 0.65625 Z M 11.332031 0.65625"/><path style="stroke:none;fill-rule:nonzero;fill:#242424;fill-opacity:1" d="M 5.457031 4.617188 C 4.933594 4.617188 4.457031 5.058594 4.457031 5.796875 C 4.457031 6.53125 4.933594 6.972656 5.457031 6.972656 C 5.984375 6.972656 6.457031 6.53125 6.457031 5.796875 C 6.457031 5.058594 5.984375 4.617188 5.457031 4.617188 Z M 5.457031 4.617188"/></g></svg>

<svg xmlns="http://www.w3.org/2000/svg" width="16pt" height="16pt" viewBox="0 0 16 16"><defs><radialGradient id="b" cx="39.417" cy="67.104" r="21.667" fx="39.417" fy="67.104" gradientTransform="matrix(.125 0 0 .09134 0 2.474)" gradientUnits="userSpaceOnUse"><stop offset="0" style="stop-color:#ed7770;stop-opacity:1"/><stop offset=".9" style="stop-color:#ed7770;stop-opacity:0"/></radialGradient><radialGradient id="c" cx="87.583" cy="67.104" r="21.667" fx="87.583" fy="67.104" gradientTransform="matrix(.125 0 0 .09134 0 2.474)" gradientUnits="userSpaceOnUse"><stop offset="0" style="stop-color:#ed7770;stop-opacity:1"/><stop offset=".9" style="stop-color:#ed7770;stop-opacity:0"/></radialGradient><radialGradient id="d" cx="66" cy="60" r="20.67" fx="66" fy="60" gradientUnits="userSpaceOnUse"><stop offset="0" style="stop-color:#ff4900;stop-opacity:1"/><stop offset="1" style="stop-color:#e30c00;stop-opacity:1"/></radialGradient><linearGradient id="a" x1="63.989" x2="63.989" y1="19.871" y2="107.6" gradientTransform="scale(.125)" gradientUnits="userSpaceOnUse"><stop offset=".5" style="stop-color:#fff;stop-opacity:1"/><stop offset=".613" style="stop-color:#fcfcfc;stop-opacity:1"/><stop offset=".709" style="stop-color:#f1f1f1;stop-opacity:1"/><stop offset=".8" style="stop-color:#dfdfdf;stop-opacity:1"/><stop offset=".886" style="stop-color:#c7c7c7;stop-opacity:1"/><stop offset=".9" style="stop-color:#c2c2c2;stop-opacity:1"/></linearGradient><linearGradient id="e" x1="23.808" x2="23.808" y1="5.811" y2="43.454" gradientTransform="scale(.125)" gradientUnits="userSpaceOnUse"><stop offset="0" style="stop-color:#ff4900;stop-opacity:1"/><stop offset="1" style="stop-color:#e30c00;stop-opacity:1"/></linearGradient><linearGradient id="f" x1="104.63" x2="104.63" y1="5.811" y2="43.454" gradientTransform="scale(.125)" gradientUnits="userSpaceOnUse"><stop offset="0" style="stop-color:#ff4900;stop-opacity:1"/><stop offset="1" style="stop-color:#e30c00;stop-opacity:1"/></linearGradient></defs><path d="M8 14.969c-3.484 0-7.23-2.18-7.23-6.965S4.516 1.039 8 1.039c1.93 0 3.715.637 5.027 1.797 1.442 1.27 2.2 3.055 2.2 5.168 0 2.101-.758 3.887-2.2 5.16C11.711 14.328 9.926 14.97 8 14.97m0 0" style="stroke:none;fill-rule:nonzero;fill:url(#a)"/><path d="M8 1.285c1.867 0 3.594.617 4.863 1.738 1.383 1.22 2.114 2.942 2.114 4.98 0 2.028-.73 3.747-2.114 4.97-1.273 1.125-3 1.746-4.863 1.746-1.875 0-3.605-.61-4.867-1.723C1.75 11.781 1.02 10.055 1.02 8.004 1.02 5.94 1.75 4.21 3.133 3 4.39 1.895 6.12 1.285 8 1.285m0-.5C4.117.785.52 3.281.52 8.004c0 4.695 3.597 7.215 7.48 7.215s7.477-2.582 7.477-7.215c0-4.66-3.594-7.219-7.477-7.219m0 0" style="stroke:none;fill-rule:nonzero;fill:#b0aba3;fill-opacity:1"/><path d="M7.418 8.605c0-1.054-1.117-1.91-2.492-1.91s-2.488.856-2.488 1.91c0 1.051 1.113 1.907 2.488 1.907s2.492-.856 2.492-1.907m0 0" style="stroke:none;fill-rule:nonzero;fill:url(#b)"/><path d="M13.438 8.605c0-1.054-1.114-1.91-2.489-1.91s-2.492.856-2.492 1.91c0 1.051 1.117 1.907 2.492 1.907s2.489-.856 2.489-1.907m0 0" style="stroke:none;fill-rule:nonzero;fill:url(#c)"/><path d="M11.41 6.25H9.625a.483.483 0 0 1 0-.965h1.785c.266 0 .485.219.485.48-.028.27-.243.485-.485.485m0 0" style="stroke:none;fill-rule:nonzero;fill:#242424;fill-opacity:1"/><path d="M10.492 7.145a.486.486 0 0 1-.48-.485V4.875c0-.266.218-.484.48-.484.266 0 .485.218.485.484V6.66a.484.484 0 0 1-.485.485m0 0" style="stroke:none;fill-rule:nonzero;fill:#242424;fill-opacity:1"/><path d="M79.094 66c0 8.344-6.75 15.125-15.094 15.125S48.875 74.344 48.875 66 55.656 50.875 64 50.875 79.094 57.656 79.094 66Zm0 0" style="fill-rule:nonzero;fill:url(#d);stroke-width:5;stroke-linecap:butt;stroke-linejoin:miter;stroke:#b32e2e;stroke-opacity:1;stroke-miterlimit:10" transform="scale(.125)"/><path d="M8 12.938c-1.8 0-3.492-.766-4.64-2.11a.46.46 0 0 1-.07-.496.48.48 0 0 1 .429-.281c.082 0 .164.023.238.066C5.133 10.801 6.531 11.16 8 11.16s2.863-.36 4.043-1.043a.47.47 0 0 1 .238-.066c.18 0 .348.11.426.281a.46.46 0 0 1-.07.496c-1.149 1.344-2.84 2.11-4.637 2.11m0 0" style="stroke:none;fill-rule:nonzero;fill:#242424;fill-opacity:1"/><path d="M12.281 10.3c.168 0 .297.212.164.368A5.83 5.83 0 0 1 8 12.688c-1.793 0-3.39-.79-4.45-2.02-.132-.156-.003-.367.169-.367q.054 0 .11.031c1.167.68 2.609 1.082 4.171 1.082 1.559 0 3-.402 4.168-1.082a.24.24 0 0 1 .113-.031m0-.5a.7.7 0 0 0-.363.101c-1.14.66-2.496 1.012-3.918 1.012-1.426 0-2.781-.351-3.918-1.012a.721.721 0 0 0-1.02.324.71.71 0 0 0 .11.766C4.363 12.387 6.125 13.187 8 13.187c1.871 0 3.633-.8 4.828-2.195a.71.71 0 0 0 .106-.765.72.72 0 0 0-.653-.426m0 0" style="stroke:none;fill-rule:nonzero;fill:#ed0009;fill-opacity:1"/><path d="M1.453 5.86A1.045 1.045 0 0 1 .41 4.815c0-.39.215-.746.567-.925a.254.254 0 0 0 .113-.32 1.62 1.62 0 0 1 1.488-2.254c.348 0 .684.109.965.32a.23.23 0 0 0 .227.035.24.24 0 0 0 .16-.168.83.83 0 0 1 .793-.598.82.82 0 1 1-.22 1.61q-.035-.007-.066-.008a.254.254 0 0 0-.25.273q.007.076.008.153c0 .843-.633 1.535-1.472 1.609a.246.246 0 0 0-.227.254v.023c0 .57-.469 1.04-1.043 1.04m0 0" style="stroke:none;fill-rule:nonzero;fill:url(#e)"/><path d="M4.723 1.156a.571.571 0 1 1-.153 1.121.491.491 0 0 0-.457.098.5.5 0 0 0-.176.43c.004.05.004.09.004.129 0 .71-.535 1.296-1.242 1.359a.503.503 0 0 0-.457.508v.027a.794.794 0 0 1-1.586-.012c0-.296.168-.566.43-.703a.497.497 0 0 0 .23-.64A1.369 1.369 0 0 1 3.39 1.836a.49.49 0 0 0 .462.074.5.5 0 0 0 .32-.336.57.57 0 0 1 .55-.418m0-.5c-.492 0-.906.328-1.03.782a1.85 1.85 0 0 0-1.114-.372A1.87 1.87 0 0 0 .707 2.934c0 .261.055.507.152.734a1.292 1.292 0 1 0 1.883 1.148v-.023a1.866 1.866 0 0 0 1.692-2.031 1.073 1.073 0 1 0 .29-2.105m0 0" style="stroke:none;fill-rule:nonzero;fill:#b32e2e;fill-opacity:1"/><path d="M14.602 5.86a1.045 1.045 0 0 1-1.043-1.044l.004-.02a.25.25 0 0 0-.231-.253 1.61 1.61 0 0 1-1.465-1.762.26.26 0 0 0-.086-.215.28.28 0 0 0-.16-.058.3.3 0 0 0-.066.008.82.82 0 1 1 .57-1.012.25.25 0 0 0 .16.168.2.2 0 0 0 .078.016.25.25 0 0 0 .153-.051c.28-.211.613-.32.964-.32.891 0 1.618.726 1.618 1.617 0 .218-.047.433-.133.636-.05.121 0 .258.117.32.348.18.563.536.563.926 0 .575-.47 1.043-1.043 1.043m0 0" style="stroke:none;fill-rule:nonzero;fill:url(#f)"/><path d="M11.332 1.156c.258 0 .48.172.55.414.048.16.165.285.321.34q.084.024.16.024c.11 0 .215-.032.301-.098a1.369 1.369 0 0 1 2.184 1.098c0 .183-.04.367-.114.535a.5.5 0 0 0 .23.64.793.793 0 0 1-.36 1.5.794.794 0 0 1-.791-.78V4.8a.503.503 0 0 0-.458-.508A1.36 1.36 0 0 1 12.11 2.93q.001-.054.008-.125a.5.5 0 0 0-.5-.547c-.043 0-.086.008-.133.015a.5.5 0 0 1-.152.024.571.571 0 0 1 0-1.14m0-.5a1.07 1.07 0 1 0 .29 2.102 1 1 0 0 0-.013.17c0 .977.75 1.774 1.704 1.86 0 .008-.004.016-.004.024a1.292 1.292 0 1 0 1.887-1.148c.097-.224.148-.474.148-.735a1.867 1.867 0 0 0-2.98-1.496 1.07 1.07 0 0 0-1.032-.778m0 0" style="stroke:none;fill-rule:nonzero;fill:#b32e2e;fill-opacity:1"/><path d="M5.457 4.617c-.523 0-1 .442-1 1.18 0 .734.477 1.176 1 1.176.527 0 1-.442 1-1.176 0-.738-.473-1.18-1-1.18m0 0" style="stroke:none;fill-rule:nonzero;fill:#242424;fill-opacity:1"/></svg>
